!!!COM: Palestrina, Giovanni Perluigi da
!!!OPR: Missa De Beata Marie Virginis (III)
!!!OMD: Credo
!!!OTL: Confiteor
**kern	**kern	**kern	**kern	**kern
*Ibass	*Itenor	*Itenor	*Icalto	*Icant
!Bassus	!Tenor 2	!Tenor 1	!Altus	!Cantus
*clefF4	*clefGv2	*clefGv2	*clefG2	*clefG2
*k[]	*k[]	*k[]	*k[]	*k[]
*G:mix	*G:mix	*G:mix	*G:mix	*G:mix
*M4/2	*M4/2	*M4/2	*M4/2	*M4/2
=155	=155	=155	=155	=155
1d	2r	1f	0r	0r
.	1a	.	.	.
2.c	.	2.e	.	.
.	[2g	.	.	.
4B	.	4d	.	.
=156	=156	=156	=156	=156
2c	2g]	2e	2r	0r
2A	2f	2c	1cc	.
1G	2.g	2d	.	.
.	.	[2g	[2b	.
.	8f	.	.	.
.	8e	.	.	.
=157	=157	=157	=157	=157
0r	1d	2g]	2b]	1dd
.	.	1f	1a	.
.	1r	.	.	2.cc
.	.	4e	4g	.
.	.	4d	4f	4b
=158	=158	=158	=158	=158
1r	1r	2c	2e	2cc
.	.	2d	2f#	2a
1G	2r	2B	1g	[1g
.	2G	2B	.	.
=159	=159	=159	=159	=159
2G	2B	2d	1r	0g]
2C	2c	2e	.	.
2.G	2.B	2.d	2r	.
.	.	.	2g	.
4A	4A	4c	.	.
=160	=160	=160	=160	=160
2B	2G	4d	2g	0r
.	.	4e	.	.
1c	2A	2f	2c	.
.	1G	2e	1g	.
2B	.	2d	.	.
=161	=161	=161	=161	=161
1c	1r	2r	0e	1g
.	.	2g	.	.
1r	2r	2g	.	2b
.	2g	2c	.	2cc
=162	=162	=162	=162	=162
1r	2g	4e	1r	1b
.	.	4f#	.	.
.	2G	1g	.	.
1D	1d	.	2r	1a
.	.	2f#	[2d	.
=163	=163	=163	=163	=163
2.G	2B	2g	2d]	1g
.	1G	2d	1g	.
4F	.	.	.	.
2E	.	2e	.	1r
2A	[2c	4d	2f#	.
.	.	4c	.	.
=164	=164	=164	=164	=164
1G	2c]	1d	2g	2r
.	2B	.	2d	1g
1C	1c	1r	2.e	.
.	.	.	.	[2cc
.	.	.	4f	.
=165	=165	=165	=165	=165
1G	1d	2r	1g	2cc]
.	.	1G	.	2b
1C	1e	.	1g	1cc
.	.	[2c	.	.
=166	=166	=166	=166	=166
1G	2d	2c]	2g	1dd
.	1g	2B	2b	.
1r	.	2c	1a	2ee
.	2f	2d	.	2dd
=167	=167	=167	=167	=167
1C	4e	1e	1g	1gg
.	4d	.	.	.
.	4c	.	.	.
.	4B	.	.	.
2D	2A	2d	2r	2ff
2E	2G	[2g	2b	[2ee
=168	=168	=168	=168	=168
2C	0A	2g]	2cc	2ee]
2D	.	2f	2.a	1dd
1A	.	1e	.	.
.	.	.	4g	.
.	.	.	2e	2cc#
=169	=169	=169	=169	=169
[0D	[0A	[0d	[0f#	[0dd
=170	=170	=170	=170	=170
0D]	0A]	0d]	0f#]	0dd]
*-	*-	*-	*-	*-
!!!CDT: 1525/^1526/-1594/2/2
!!!OCY: Italia
!!!AGN: Mass (Paraphrase)
!!!AST: renaissance, vocal
!!!ASW: Gregorian Mass
!!!PWK: Masses, Book Mantuan I
!!!RNB: Cadence finals: D
!!!YOR: Le Opere Complete, v. 18, p. 162
!!!YOO: Rome, Italy: Fratelli Scalera
!!!END: 1992//
!!!EED: John Miller
!!!YEC: Copyright 2000, John Miller
!!!YEN: United States of America
!!!YEM: Rights to all derivative electronic formats reserved.
!!!YEM: Refer to licensing agreement for further details.
!!!YEM: This file must be accompanied by the licensing agreement.
!!!YEM: A copy of the licensing agreement may be found at http://www.music-cog.ohio-state.edu/HumdrumDatabases/Palestrina/license.txt
!!!EMD: converted to Humdrum by Bret Aarden
